actions/22/edit-redo.svg

<svg xmlns="http://www.w3.org/2000/svg" viewBox="0 0 22 22">
  <defs id="defs3051">
    <style type="text/css" id="current-color-scheme">
      .ColorScheme-Text {
        color:#808080;
      }
      </style>
  </defs>
 <path 
    style="fill:currentColor;fill-opacity:1;stroke:none" 
	d="m13.699219 3l-.707031.707031 2.292968 2.292969h-2.285156-1.00781-.492188c-3.601 0-6.5 2.899-6.5 6.5 0 3.601 2.899 6.5 6.5 6.5h1.5v-1h-1.5c-3.047 0-5.5-2.453-5.5-5.5 0-3.047 2.453-5.5 5.5-5.5h.492188 1.00781 2.285156l-2.292968 2.292969.707031.707031 3.292969-3.292969.207031-.207031-.207031-.207031-3.292969-3.292969" 
    class="ColorScheme-Text"
    />  
</svg>

<svg xmlns="http://www.w3.org/2000/svg" version="1.1" viewBox="0 0 22 22">
 <defs>
  <style id="current-color-scheme" type="text/css">
   .ColorScheme-Text { color:#808080; }
  </style>
 </defs>
 <path class="ColorScheme-Text" d="M 13.699,3 12.992,3.707 15.285,6 H 13 11.992 11.5 C 7.899,6 5,8.899 5,12.5 5,16.101 7.899,19 11.5,19 H 13 V 18 H 11.5 C 8.453,18 6,15.547 6,12.5 6,9.453 8.453,7 11.5,7 H 11.992 13 15.285 L 12.992,9.293 13.699,10 16.992,6.707 17.199,6.5 16.992,6.293 13.699,3" style="color:#808080;fill:currentColor"/>
</svg>
